X: 22624
T: Laendler
R: waltz
M: 3/4
K: Gmajor
"G"GB Gd Bg|db gdB2|"D7"Aa fd c2|"G"Bb gdB2|
GB Gd Bg|db gdB2|"D7"Aa fd cA|"G"G2z2z2:|
|:"D7"c'2fd c'f|"G"gb dg Bd|"D7"dF Ad fa|"G"gb dg Bd|
"D7"c'2fd c'f|"G"gb dg Bd|"D7"dF Ad fa|"G"g2z2z2:|
[K:C]
|:{/e}"G7"f2 BG FD|"C"CE Gce2|{/e}"G7"f2 Ba gB|"C"ce Gc EG|
{/e}"G7"f2 BG FD|"C"CE Gc ee|"G7"f2 Ba gB|"C"c2z2z2:|

